X: 12555
T: Farewell To McCarthy's
R: jig
M: 6/8
K: Aminor
|:a|age edc|cde da_b|age edc|edc A2 a|
age edc|cde d2e|fed edc|1 dcA A2:|2 dcA AGE||
D2A AGE|c2A AGE|DAA AGE|GAE GAE|
D2A AGE|c2A ABc|ddd cde|1 dcA AGE:|2 deg ega||

